!!!COM: Bach, Johann Sebastian
!!!CDT: 1685/3//-1750/7/28/
!!!OTL@@DE: O Welt, sieh hier dein Leben
!!!AGN: 4-Part Chorale
!!!SCT: BH 366
!!!SCT: BWV 394
**harm	**root	**kern	**kern	**kern	**kern
!	!	!bass	!tenor	!alto	!soprno
*	*Iorgan	*Iorgan	*Iorgan	*Iorgan	*Iorgan
*M4/4	*M4/4	*M4/4	*M4/4	*M4/4	*M4/4
*met(c)	*met(c)	*met(c)	*met(c)	*met(c)	*met(c)
*MM60	*MM60	*MM60	*MM60	*MM60	*MM60
*k[f#c#g#]	*k[f#c#g#]	*k[f#c#g#]	*k[f#c#g#]	*k[f#c#g#]	*k[f#c#g#]
*A:	*A:	*A:	*A:	*A:	*A:
I	4AA	4A	4e	8a	8cc#
.	.	.	.	8g#	8b
=1	=1	=1	=1	=1	=1
IV	4DD	8d	8f#	4.f#	4a
.	.	8c#	8e	.	.
ii	4BB	4B	4d	.	4b
.	.	.	.	8g#	.
I	4AA	4A	4e	4.a	8cc#
.	.	.	.	.	8dd
Ib	4AA	4C#	4A	.	4ee
.	.	.	.	8e	.
=2	=2	=2	=2	=2	=2
ii7	4BB	4BB	4A	4f#	2dd
V7	4EE	4E	4G#	4e	.
I;	4AA;	4AA;	4A;	4e;	4cc#;
I	4AA	8A	4e	4a	8cc#
.	.	8B	.	.	8dd
=3	=3	=3	=3	=3	=3
Ib	4AA	4c#	4e	8a	4ee
.	.	.	.	8g#	.
Ib	4AA	8C#	4e	8a	4ee
.	.	8D	.	8b	.
V	4EE	4E	8e	8g#	4b
.	.	.	8d	8f#	.
I	4AA	8A	4c#	4e	8cc#
.	.	8G#	.	.	8b
=4	=4	=4	=4	=4	=4
vi7	4FF#	4F#	4c#	4e	2a
V7/V	4BB	4BB	4B	4d#	.
V;	4EE;	4E;	4B;	4e;	4g#;
V	4EE	8E	4G#	4B	4e
.	.	8D	.	.	.
=5	=5	=5	=5	=5	=5
Ib	8AA	8C#	4A	8e	4a
IV	8DD	8D	.	8f#	.
viioc	4GG#	8C#	4d	4g#	4b
.	.	8BB	.	.	.
I	8AA	4AA	8e	8a	8cc#
viioc	8GG#	.	8d	8g#	8b
I	8AA	8A	8e	8a	8cc#
iib	8BB	8D	8f#	8b	8dd
=6	=6	=6	=6	=6	=6
V;	2EE;	2E;	2e;	2g#;	2b;
r	4r	4r	4r	4r	4r
V/vi	4CC#	4C#	4e#	4g#	8cc#
.	.	.	.	.	8b
!!linebreak: 2
=7	=7	=7	=7	=7	=7
vi	4FF#	4F#	8c#	4f#	4a
.	.	.	8d	.	.
Vb	4EE	4G#	8c#	4e	4b
.	.	.	8B	.	.
I	4AA	8A	4A	8e	8cc#
.	.	8B	.	8d	8dd
I	4AA	8A	4A	4c#	4ee
.	.	8G#	.	.	.
=8	=8	=8	=8	=8	=8
IVb	4DD	4F#	8A	8c#	2dd
.	.	.	4f#	16B	.
.	.	.	.	16A	.
V7b	4EE	4G#	.	4B	.
.	.	.	8e	.	.
I;	4AA;	4A;	4e;	4A;	4cc#;
vi	4FF#	4F#	4f#	4a	8cc#
.	.	.	.	.	8dd
=9	=9	=9	=9	=9	=9
Vb	8EE	8G#	4e	8b	4ee
I	8AA	8A	.	8cc#	.
Vb	4EE	8G#	4B	8b	4ee
.	.	8F#	.	8a	.
V	4EE	8E	8B	8g#	4b
.	.	8F#	8A	8f#	.
iiib	8CC#	8E	8G#	4g#	8cc#
v7c/iii	8GG#	8D#	8F#	.	8b
=10	=10	=10	=10	=10	=10
iii7b	8CC#	4C#	8E	8g#	2a
vic	8FF#	.	4c#	16f#	.
.	.	.	.	16e	.
viio7/V	4DD#	4D#	.	4f#	.
.	.	.	8B	.	.
V;	4EE;	4E;	4B;	4e;	4g#;
iii	4CC#	4C#	8c#	8e	4e
.	.	.	8B	8d	.
=11	=11	=11	=11	=11	=11
vi	4FF#	4F#	4A	8c#	4a
.	.	.	.	8d	.
iii7b	8CC#	8E	8G#	8c#	4b
iib	8BB	8D	8F#	8B	.
Ib	4AA	8C#	4.E	4A	8cc#
.	.	8BB	.	.	8dd
Ib	8AA	8C#	.	4a	8ee
IV	8DD	8D	8F#	.	8dd
=12	=12	=12	=12	=12	=12
iiib	8CC#	8E	8G#	8e	4cc#
IV7	8DD	8D	4A	8f#	.
V	4EE	4E	.	8B	4b
.	.	.	8G#	8e	.
I;	4AA;	4AA;	4E;	4c#;	4a;
==	==	==	==	==	==
*-	*-	*-	*-	*-	*-
!!chor2scor: -l 2 -o %b.pmx
!!!YEC: Copyright 1994, David Huron
!!!YEC: Changes/Additions 2001 by Craig Stuart Sapp
!!!YEN: United States of America
!!!SMA: 371 Bach Chorales, edited by Ludwig Erk, C.F. Peters
!!!PDT: 1850, 1865
!!!ONB: Harmony and Root analysis done manually
